X: 1
T: Old Joe Clark
C:Trad
R: Reel
G: American Old-Timey
M: 4/4
L: 1/8
K: Amix
Z: ABC transcription by Verge Roller
r: 32
|:  A2 | "A" e3 f "G" g2 f2 | "A" e2 d2 c2 d2 | "A" e3 f "G" g2 f2 | "A" e6 A2 | "A" e3 f "G" g2 f2 | "A" e2 d2 "G" c2 B2 | "A" A2 c2 "G" B2 G2 | "A" A6 :|
|: E2 | "A" A3 A A2 A2 | "A" e2 d2 c4 | "A" A3 A c2 A2 | "G" B8 | "A" A3 A A2 A2 | "A" e2 d2 c2 B2 | "A" A2 c2 "G" B2 G2 | "A" A6 :|
